src/Pure-Dark/16/symbolic/status/arch-unknown-symbolic.svg

<?xml version="1.0" encoding="UTF-8" standalone="no"?>
<svg
   width="16"
   height="16"
   version="1.1"
   id="svg2"
   sodipodi:docname="arch-unknown-symbolic.svg"
   inkscape:version="1.4.2 (ebf0e940d0, 2025-05-08)"
   xmlns:inkscape="http://www.inkscape.org/namespaces/inkscape"
   xmlns:sodipodi="http://sodipodi.sourceforge.net/DTD/sodipodi-0.dtd"
   xmlns="http://www.w3.org/2000/svg"
   xmlns:svg="http://www.w3.org/2000/svg">
  <defs
     id="defs2">
     <style
        id="current-color-scheme"
        type="text/css">
        .ColorScheme-Text { color:#f2f2f2; }
        .ColorScheme-NeutralText { color:#f67400; }
        .ColorScheme-PositiveText { color:#37c837; }
        .ColorScheme-NegativeText { color:#f44336; }
        .ColorScheme-Highlight { color:#3daee9; }
     </style>
  </defs>
  <sodipodi:namedview
     id="namedview2"
     pagecolor="#ffffff"
     bordercolor="#000000"
     borderopacity="0.25"
     inkscape:showpageshadow="2"
     inkscape:pageopacity="0.0"
     inkscape:pagecheckerboard="0"
     inkscape:deskcolor="#d1d1d1"
     inkscape:zoom="49.6875"
     inkscape:cx="8"
     inkscape:cy="8"
     inkscape:window-width="1920"
     inkscape:window-height="1010"
     inkscape:window-x="0"
     inkscape:window-y="0"
     inkscape:window-maximized="1"
     inkscape:current-layer="svg2" />
  <path
     id="path1"
     style="fill:currentColor"
     class="ColorScheme-Text"
     d="M 8 0 A 8 8 0 0 0 0 8 A 8 8 0 0 0 8 16 A 8 8 0 0 0 16 8 A 8 8 0 0 0 8 0 z M 7.90625 1 A 7 7 0 0 1 8 1 A 7 7 0 0 1 15 8 A 7 7 0 0 1 8 15 A 7 7 0 0 1 1 8 A 7 7 0 0 1 7.90625 1 z M 8.0214844 4 A 4 4 0 0 0 5.171875 5.171875 A 4 4 0 0 0 5.1289062 5.2148438 A 4 4 0 0 0 4.5546875 10.03125 L 6.5859375 8 L 5.8789062 7.2929688 L 5.0058594 8.1660156 A 3 3 0 0 1 5.84375 5.9140625 A 3 3 0 0 1 5.8789062 5.8789062 A 3 3 0 0 1 9.2910156 5.2949219 L 10.03125 4.5546875 A 4 4 0 0 0 8.0214844 4 z M 11.445312 5.9707031 L 9.4140625 8 L 10.121094 8.7070312 L 10.994141 7.8339844 A 3 3 0 0 1 10.121094 10.121094 A 3 3 0 0 1 6.7089844 10.705078 L 5.96875 11.445312 A 4 4 0 0 0 10.828125 10.828125 A 4 4 0 0 0 11.445312 5.9707031 z " />
</svg>

<svg width="16" height="16" version="1.1" xmlns="http://www.w3.org/2000/svg">
 <path d="m8 0a8 8 0 0 0-8 8 8 8 0 0 0 8 8 8 8 0 0 0 8-8 8 8 0 0 0-8-8zm-0.09375 1a7 7 0 0 1 0.09375 0 7 7 0 0 1 7 7 7 7 0 0 1-7 7 7 7 0 0 1-7-7 7 7 0 0 1 6.9062-7z" fill="#f2f2f2" stroke-linecap="round" stroke-linejoin="round" stroke-width="2"/>
 <path d="m5.1288 5.2144a4 4 0 0 0-0.57452 4.8172l2.0316-2.0316-0.70711-0.70711-0.87284 0.87283a3 3 0 0 1 0.83693-2.2511 3 3 0 0 1 0.035908-0.035908 3 3 0 0 1 3.4126-0.58419l0.74025-0.74025a4 4 0 0 0-4.86 0.61734 4 4 0 0 0-0.042813 0.042813zm0.83969 6.2314a4 4 0 0 0 4.86-0.61734 4 4 0 0 0 0.61596-4.8586l-2.0302 2.0302 0.70711 0.70711 0.87284-0.87283a3 3 0 0 1-0.87284 2.287 3 3 0 0 1-3.4126 0.58419z" fill="#f2f2f2" stroke-linecap="round" stroke-linejoin="round" stroke-width="2"/>
</svg>
